X: 2076
T: Saraband
%R: saraband, waltz
B: Henry Playford "Apollo's Banquet", London 1687 (5th Edition)
F: https://archive.org/details/apollosbanquetco01rugg
Z: 2017 John Chambers <jc:trillian.mit.edu>
M: 3/4
L: 1/8
K: Dm
% - - - - - - - - - -
|:\
f2 e3 d | ^c3 =B A2 | d2 e3 f | f4 e2 |\
f3 g ab | g2 c2 f2 | (fg) g3 f | f6 :|
|:\
e2 A2 d2 |^c3 d e2 | fe d3 c |\
=B4 A2 | f3 e fd | (ed) d3 ^c | d6 |]
% - - - - - - - - - -

%%sep 1 1 500
%%sep 1 1 500

